public/images/icon-group.svg

<svg enable-background="new 0 0 30 30" height="30" viewBox="0 0 30 30" width="30" xmlns="http://www.w3.org/2000/svg"><path d="m15.774 20.109c1.367-1.277 2.226-3.09 2.226-5.109 0-3.866-3.134-7-7-7s-7 3.134-7 7c0 2.019.859 3.832 2.226 5.109-3.68 1.778-6.226 5.53-6.226 9.891h22c0-4.361-2.547-8.113-6.226-9.891zm-9.774-5.109c0-2.762 2.239-5 5-5s5 2.238 5 5-2.239 5-5 5-5-2.238-5-5zm-3.776 13c.707-3.104 3.027-5.597 6.026-6.563.844.362 1.773.563 2.75.563s1.906-.201 2.75-.563c2.998.966 5.318 3.458 6.025 6.563zm16.776-26c2.762 0 5 2.238 5 5 0 2.604-2 4.719-4.543 4.954.229.63.391 1.29.473 1.977.637-.085 1.25-.249 1.82-.493 2.998.966 5.318 3.458 6.025 6.563h-8.515c.732.6 1.393 1.268 1.969 2h8.771c0-4.361-2.547-8.113-6.227-9.891 1.368-1.278 2.227-3.091 2.227-5.11 0-3.866-3.135-7-7-7-3.55 0-6.475 2.645-6.931 6.069.687.082 1.347.245 1.977.473.235-2.544 2.35-4.542 4.954-4.542z"/></svg>

<?xml version="1.0" encoding="iso-8859-1"?>
<!-- Generator: Adobe Illustrator 14.0.0, SVG Export Plug-In . SVG Version: 6.00 Build 43363)  -->
<!DOCTYPE svg PUBLIC "-//W3C//DTD SVG 1.1//EN" "http://www.w3.org/Graphics/SVG/1.1/DTD/svg11.dtd">
<svg version="1.1" id="Layer_1" xmlns="http://www.w3.org/2000/svg" xmlns:xlink="http://www.w3.org/1999/xlink" x="0px" y="0px"
	 width="30px" height="30px" viewBox="0 0 30 30" style="enable-background:new 0 0 30 30;" xml:space="preserve">
<path d="M15.774,20.109C17.141,18.832,18,17.019,18,15c0-3.866-3.134-7-7-7s-7,3.134-7,7c0,2.019,0.859,3.832,2.226,5.109
	C2.546,21.887,0,25.639,0,30h22C22,25.639,19.453,21.887,15.774,20.109z M6,15c0-2.762,2.239-5,5-5s5,2.238,5,5s-2.239,5-5,5
	S6,17.762,6,15z M2.224,28c0.707-3.104,3.027-5.597,6.026-6.563C9.094,21.799,10.023,22,11,22s1.906-0.201,2.75-0.563
	c2.998,0.966,5.318,3.458,6.025,6.563H2.224z M19,2c2.762,0,5,2.238,5,5c0,2.604-2,4.719-4.543,4.954
	c0.229,0.63,0.391,1.29,0.473,1.977c0.637-0.085,1.25-0.249,1.82-0.493c2.998,0.966,5.318,3.458,6.025,6.563H19.26
	c0.732,0.6,1.393,1.268,1.969,2H30c0-4.361-2.547-8.113-6.227-9.891C25.141,10.832,26,9.019,26,7c0-3.866-3.135-7-7-7
	c-3.55,0-6.475,2.645-6.931,6.069c0.687,0.082,1.347,0.245,1.977,0.473C14.281,3.998,16.396,2,19,2z"/>
</svg>
